icons/css3/css3-plain.svg

<svg xmlns="http://www.w3.org/2000/svg" viewBox="0 0 128 128"><path fill="#1572B6" d="M8.76 1l10.055 112.883 45.118 12.58 45.244-12.626 10.063-112.837h-110.48zm89.591 25.862l-3.347 37.605.01.203-.014.467v-.004l-2.378 26.294-.262 2.336-28.36 7.844v.001l-.022.019-28.311-7.888-1.917-21.739h13.883l.985 11.054 15.386 4.17-.004.008v-.002l15.443-4.229 1.632-18.001h-32.282999999999994l-.277-3.043-.631-7.129-.331-3.828h34.748999999999995l1.264-14h-52.926l-.277-3.041-.63-7.131-.332-3.828h69.281l-.331 3.862z"/></svg>

<svg version="1.1" xmlns="http://www.w3.org/2000/svg" xmlns:xlink="http://www.w3.org/1999/xlink" viewBox="0 0 128 128">
<path fill="#1572B6" d="M8.76,1l10.055,112.883l45.118,12.58l45.244-12.626L119.24,1H8.76z M98.351,26.862l-3.347,37.605
	l0,0l0.01,0.203L95,65.137v-0.004l-2.378,26.294l-0.262,2.336L64,101.607v0.001l-0.022,0.019l-28.311-7.888L33.75,72h6.399h7.484
	l0.985,11.054l15.386,4.17L64,87.232V87.23l15.443-4.229L81.075,65H64l0,0H48.836h-0.044l-0.277-3.043l-0.631-7.129L47.553,51H64
	l0,0h18.302l1.264-14H64.048H64H30.684H30.64l-0.277-3.041l-0.63-7.131L29.401,23H64h0.048h34.634L98.351,26.862z"/>
</svg>
